svg/black/xrp.svg

<svg xmlns="http://www.w3.org/2000/svg" width="32" height="32" viewBox="0 0 32 32">
  <path fill-rule="evenodd" d="M16,32 C7.163444,32 0,24.836556 0,16 C0,7.163444 7.163444,0 16,0 C24.836556,0 32,7.163444 32,16 C32,24.836556 24.836556,32 16,32 Z M21.9607258,18.2052162 C21.2704736,17.7969333 20.4931636,17.6785975 19.72322,17.6510528 C19.0772398,17.6279439 18.1134664,17.2038822 18.1134664,16.0000561 C18.1134664,15.1031305 18.8232218,14.381284 19.7235503,14.3490781 C20.4934296,14.3215335 21.2706662,14.2030473 21.9607258,13.7949054 C23.6744127,12.7813518 24.4303642,10.6536481 23.7535615,8.74878382 C23.0767587,6.84391954 21.1625926,5.71182285 19.2138715,6.06387171 C17.2651504,6.41592057 15.844464,8.15047962 15.8445318,10.1776004 C15.8445318,10.9869018 16.1255112,11.7316599 16.4840354,12.4224094 C16.7855729,13.003375 16.9381306,14.0816573 15.9039403,14.6933064 C15.1346205,15.148324 14.1744982,14.8602095 13.6949279,14.0739512 C13.2898383,13.4098535 12.8008283,12.7876133 12.1161904,12.3826101 C10.4025323,11.3690578 8.22587264,11.7622312 6.95394542,13.3150745 C5.68201819,14.8679178 5.68201819,17.132138 6.95394542,18.6849813 C8.22587264,20.2378246 10.4025323,20.630998 12.1161904,19.6174457 C12.8006356,19.2125929 13.2896915,18.5907567 13.6945242,17.9270632 C14.0269586,17.3820626 14.8572188,16.687366 15.9039036,17.3068904 C16.6720491,17.7615509 16.909518,18.7576974 16.4836776,19.5782009 C16.1252085,20.268847 15.8445868,21.0134453 15.8445868,21.8226058 C15.8445899,23.8496762 17.2652865,25.5841471 19.2139666,25.9361447 C21.1626466,26.2881423 23.0767458,25.1560486 23.7535191,23.2512269 C24.4302925,21.3464052 23.6743624,19.2187583 21.9607258,18.2052162 Z"/>
</svg>

<svg xmlns="http://www.w3.org/2000/svg" width="32" height="32"><path fill-rule="evenodd" d="M16 32C7.163 32 0 24.837 0 16S7.163 0 16 0s16 7.163 16 16-7.163 16-16 16zm5.96-13.795c-.69-.408-1.467-.526-2.237-.554-.646-.023-1.61-.447-1.61-1.65 0-.898.71-1.62 1.61-1.652.77-.027 1.548-.146 2.238-.554 1.713-1.014 2.47-3.141 1.793-5.046-.677-1.905-2.591-3.037-4.54-2.685-1.949.352-3.37 2.086-3.37 4.114 0 .809.282 1.554.64 2.244.302.581.454 1.66-.58 2.271-.77.455-1.73.167-2.21-.619-.404-.664-.893-1.286-1.578-1.691-1.713-1.014-3.89-.62-5.162.932a4.255 4.255 0 0 0 0 5.37c1.272 1.553 3.449 1.946 5.162.932.685-.404 1.174-1.026 1.579-1.69.332-.545 1.162-1.24 2.209-.62.768.455 1.006 1.45.58 2.271-.359.69-.64 1.435-.64 2.245 0 2.027 1.421 3.761 3.37 4.113 1.949.352 3.863-.78 4.54-2.685.676-1.905-.08-4.032-1.793-5.046z"/></svg>
